src/assets/icons/biz-money,simple,bill.svg

<svg width="48" height="48" viewBox="0 0 48 48" fill="none" xmlns="http://www.w3.org/2000/svg">
<rect opacity="0.2" x="5" y="5" width="38" height="38" rx="4" fill="black"/>
<path d="M15.193 32.8182H16.8691L16.8833 31.1776C19.9586 30.9432 21.7413 29.3097 21.7484 26.8452C21.7413 24.4233 19.916 23.1378 17.3876 22.5696L16.9686 22.4702L16.997 18.919C17.9416 19.1392 18.5169 19.7429 18.6021 20.6378H21.5495C21.514 18.2869 19.7598 16.6037 17.0254 16.3054L17.0396 14.6364H15.3635L15.3493 16.2912C12.5723 16.5611 10.612 18.2372 10.6262 20.6591C10.6191 22.804 12.1319 24.0327 14.5893 24.6222L15.2711 24.7926L15.2356 28.5497C14.0779 28.3295 13.2967 27.6193 13.2186 26.4332H10.2427C10.3137 29.3026 12.1958 30.9077 15.2072 31.1705L15.193 32.8182ZM16.9118 28.5497L16.9402 25.233C18.041 25.581 18.6376 26.0284 18.6447 26.8381C18.6376 27.6974 17.9842 28.3366 16.9118 28.5497ZM15.2924 22.0369C14.4047 21.7315 13.7654 21.2699 13.7797 20.4531C13.7797 19.6932 14.3194 19.1037 15.3208 18.8977L15.2924 22.0369Z" fill="black"/>
<rect opacity="0.6" x="24" y="11" width="15" height="4" rx="2" fill="black"/>
<rect opacity="0.6" x="24" y="32" width="15" height="4" rx="2" fill="black"/>
<rect opacity="0.6" x="26" y="18" width="13" height="4" rx="2" fill="black"/>
<rect opacity="0.6" x="26" y="25" width="13" height="4" rx="2" fill="black"/>
</svg>

<svg xmlns="http://www.w3.org/2000/svg" width="48" height="48" fill="none" viewBox="0 0 48 48">
  <rect width="38" height="38" x="5" y="5" fill="#000" opacity=".2" rx="4"/>
  <path fill="#000" d="M15.193 32.818h1.676l.014-1.64c3.076-.235 4.858-1.868 4.865-4.333-.007-2.422-1.832-3.707-4.36-4.275l-.42-.1.029-3.551c.945.22 1.52.824 1.605 1.719h2.947c-.035-2.351-1.79-4.034-4.524-4.333l.015-1.669h-1.676l-.015 1.655c-2.777.27-4.737 1.946-4.723 4.368-.007 2.145 1.506 3.374 3.963 3.963l.682.17-.035 3.758c-1.158-.22-1.94-.93-2.017-2.117h-2.976c.07 2.87 1.953 4.475 4.964 4.738l-.014 1.647zm1.719-4.268l.028-3.317c1.101.348 1.698.795 1.705 1.605-.007.86-.66 1.499-1.733 1.712zm-1.62-6.513c-.887-.305-1.527-.767-1.512-1.584 0-.76.54-1.35 1.54-1.555l-.028 3.139z"/>
  <rect width="15" height="4" x="24" y="11" fill="#000" opacity=".6" rx="2"/>
  <rect width="15" height="4" x="24" y="32" fill="#000" opacity=".6" rx="2"/>
  <rect width="13" height="4" x="26" y="18" fill="#000" opacity=".6" rx="2"/>
  <rect width="13" height="4" x="26" y="25" fill="#000" opacity=".6" rx="2"/>
</svg>
